X: 12206
T: Fading Days
R: reel
M: 4/4
K: Eminor
f|Jg8-|g8-|f3{a}f2d3|J!>!e6B2-|B8-|!>!B6z2|z3fgJa3-|a2{c'}a/g/fgaJb2-|
b8-|b6Jc'2-|c'b/a/z2JbgJa2-|a{c'/}agfe4-|e8-|e2z2{a}f4|
Jg2a/{c'}a/g/f/g/a/gf/e/f-|f d/{e}d/B3A2d|Je3-!>!e2B3-|B3{c}BA2{c}(3AGE|
D{E}D4-D3-|D8-|D6z2|{a}fJg3-f3d-|d2A3JB3-|B2{c}B6-|B8-|B4z4|z8|
Jg3-f3d2|{a}dA3JB4-|B2{c}B6-|B8-|B4z4|z8|{a}f4Jg4-|g8|{a}gfedJe4-|!>!e3-dB4-|{c}B8-|B6z2|
z3 {a}f2Jg3-|g4agfg|Ja6{c'}a.g|zJB3{c}BAd2-|d2Je2B4-|B2{c}!>!B3z3|
z3fga3-|a{c'}agfe4-|!>!e6z2|ze/f/g4 f/g/a-|a2{c'}a/g/f gab2-|
b6Jc'2-|c'2-c'3-b3-|b6 a/g/z|z3JabJa2b/a/|g/f/g//a//g//a//gfed!>!Je2|
B2B6-|B4z4|Jg3f2{a}fd2-|dA3JB4-|B8-|B4z4|z8|z8|Jg3f2{a}fd2-|dA3JB4-|B2{c}B6-|B6z2|z8|z8|z8|
z3f2Jg3-|g8-|g{a}g2fedJe2-|e6{a}ed-|d8-|!>!d6z2|z4Je4-|e3Jf4d-|d3-d2Je3-|e2B6-|
B2{c}B6-|!>!B6z2|z4Je4-|e3f3-f2|zd/e/dB3{c}BA-|Ad3JeB3-|B2{c}B6-|B8-|!>!B2z2Jg4|
f3d3A2-|AJB6{c}B-|B8-|B8|z8|z4Jg3f-|f{a}fd3A3|JB6{c}B2-|B8-|B8|z8|z8|z6F2|
G8-|G6{A}G2-|G3{A}GED3-|D8-|!>!D6z2|z6f2|Jg8-|g8-|g3(3a/g/a/ g2fe|d2Je6-|
>!e8|z6f{a}g-|gfe{de}dcBA2|JB8-|B3-B2Jc3-|!>!cBAG3-G2|{A}G8-|G4z3f|Jg2f3d3|
A3JB3-B2-|B2{c}B6-|B8-|B8-|B4z3f|Jg3f2d3|A3JB3-B2|B2{c}B6-|B8-|B8-|B8|

